source/img/icons/icon-phone.svg

<svg width="16" height="19" viewBox="0 0 16 19" xmlns="http://www.w3.org/2000/svg">
<path fill-rule="evenodd" clip-rule="evenodd" d="M14.7434 17.4711C14.3906 17.8766 13.6884 18.3825 13.05 18.5816C12.4115 18.7808 11.8368 18.6733 11.3215 18.5091C10.8064 18.3448 10.3507 18.1238 9.21267 17.1521C8.07456 16.1805 6.25394 14.4581 4.7822 12.3551C3.31041 10.252 2.18748 7.7683 1.5414 6.21818C0.895307 4.66813 0.725947 4.05167 0.73403 3.45359C0.742134 2.85546 0.927555 2.27567 1.4066 1.72647C1.88564 1.17726 2.65804 0.658624 3.31599 0.601105C3.97393 0.543586 4.51727 0.947209 4.98819 1.4629C5.45908 1.97865 5.85761 2.60648 6.08037 3.21304C6.30313 3.8196 6.35014 4.40482 6.14077 4.80543C5.93147 5.20601 5.46571 5.42202 5.15486 5.55544C4.84401 5.68887 4.68801 5.7399 4.57449 5.80607C4.46103 5.87226 4.39008 5.95367 4.40878 6.15356C4.42757 6.3534 4.53606 6.67174 4.83164 7.48753C5.1273 8.30328 5.61011 9.6165 6.37416 10.8087C7.13828 12.0009 8.18363 13.0722 8.82628 13.5793C9.46891 14.0866 9.70888 14.0298 9.98945 13.7774C10.2701 13.525 10.5913 13.0769 10.9257 12.8749C11.26 12.6728 11.6073 12.7166 11.93 12.8288C12.2526 12.9409 12.5504 13.1211 12.8944 13.3988C13.2384 13.6766 13.6285 14.0516 13.9828 14.4841C14.3373 14.9167 14.6561 15.4067 14.837 15.7447C15.0179 16.0827 15.0608 16.2688 15.0805 16.5145C15.1 16.7603 15.0964 17.0656 14.7434 17.4711Z" fill="white"/>
</svg>

<svg width="16" height="19" xmlns="http://www.w3.org/2000/svg"><path fill-rule="evenodd" clip-rule="evenodd" d="M14.743 17.471c-.352.406-1.055.912-1.693 1.11-.639.2-1.213.092-1.729-.072-.515-.164-.97-.385-2.108-1.357-1.138-.972-2.96-2.694-4.43-4.797C3.31 10.252 2.186 7.768 1.54 6.218.895 4.668.726 4.052.734 3.454a2.587 2.587 0 0 1 .673-1.728C1.886 1.177 2.658.66 3.316.601c.658-.057 1.201.346 1.672.862.471.516.87 1.143 1.092 1.75.223.607.27 1.192.06 1.592-.209.401-.674.617-.985.75-.311.134-.467.185-.58.251-.114.066-.185.148-.166.348.019.2.127.518.423 1.334.295.815.778 2.128 1.542 3.32.764 1.193 1.81 2.264 2.452 2.771.643.508.883.45 1.163.198.281-.252.602-.7.937-.902.334-.202.681-.158 1.004-.046.323.112.62.292.964.57.344.278.735.653 1.089 1.085.354.433.673.923.854 1.26.18.339.224.525.244.77.019.246.015.552-.338.957z" fill="#fff"/></svg>
